X: 41976
T: Wallop The Spot
R: jig
M: 6/8
K: Dmajor
|:FAF DFA|BAF d2 A|~F3 DFA|BAF AFE|
FEF DFA|BAF d2 e|fdc d2 A|BcB AFE:|
|:c2 d eAA|fAA eAA|cAc eAA|BAF AFE|
c2 d eAA|fAA efg|agf ecA|BAF AFE:|
|:DFA d3|edc d3|DFA d2 A|BcB AFE|
DFA d2 e|fdc d2 e|fdc d2 A|BcB AFE:|

